X:1
T:Title
%%score { 1 | ( 2 3 ) }
L:1/8
Q:1/4=94
M:4/4
K:Eb
V:1 treble nm="Grand Piano"
V:2 bass 
V:3 bass 
V:1
 [GB]>[_G=A] [=GB]>[_GA] [=GB]>[_Ac] [GB]>[Ge] | G>_G =G>_G =G>_G =G2 | %2
w: Chas.~H.~Gabriel * * * * * * *||
 [FA]>[=EG] [FA]>[Ac] [FA]>[EG] [FA]>[DF] |[M:5/4] [EG]>[EG] [FA]>[FA] [FB]>c- c d3 | %4
w: ||
[M:4/4] [Ge]>[Gd] [Gc]>[B,GB] [B,FA]2 [B,EG]2 | [DAc]2 [DAc]2 [ac']2 [ac']2 | %6
w: ||
 [Fd]>[Ac] [GB]>[FA] [EG]2 [B,DF]2 | [B,EB]2 [DAB]2 [gb]2 [gb]2 | %8
w: ||
 [Ge]>[Gd] [Gc]>[B,GB] [B,FA]2 [B,EG]2 | [CEF]2 [EFc]2 [ef]2 c'2 | F>=A c>e d2 c2 | [B,DB]6 z2 | %12
w: ||||
 [Ge]>[Gd] [Gc]>[B,GB] [B,FA]2 [B,EG]2 | [DAc]2 [DAc]2 [ac']2 [ac']2 | %14
w: ||
 [Fd]>[Ac] [GB]>[FA] [EG]2 [B,DF]2 | [B,EB]2 [DAB]2 [gb]2 [gb]2 | %16
w: ||
 [Ge]>[Gd] [Gc]>[B,GB] [B,FA]2 [B,EG]2 | [CEF]2 [EFc]2 [ef]2 [ac']2 | %18
w: ||
 [Fd]>[Ac] [GB]>[FA] [EG]2 [DF]2 | E6 z2 |] %20
w: ||
V:2
 [E,E]>[E,E] [E,E]>[E,E] [E,E]>[E,E] [E,E]>[E,B,] | %1
 [E,B,E]>[E,=A,E] [E,B,E]>[E,A,E] [E,B,E]>[E,A,E] [E,B,E]2 | %2
 [B,,B,]>[B,,B,] [B,,B,]>[B,,B,] [B,,B,]>[B,,B,] [B,,B,]>[B,,B,] | %3
[M:5/4] [E,B,]>[E,B,] [E,C]>[E,C] [D,B,]>[K:treble][F,=A,F]- [F,A,F] [B,A]3 | %4
[M:4/4][K:bass] [E,B,]>[E,B,] [E,B,]>E, E,2 E,2 | B,,2 B,,2 (3B,[K:treble]DF B2 | %6
 [B,,B,]>[B,,B,] [B,,B,]>[B,,B,] B,2 A,2 | G,2 F,2[K:treble] (3EGB e2 | %8
 [E,B,]>[E,B,] [E,B,]>E, E,2 E,2 | A,2 A,2[K:treble] (3FAc [fa]2 | %10
 [F,=A,]>[F,CF] [F,A,F]>[F,CF] [F,B,F]2 [F,A,E]2 | z z/ C,/ D,>C, z z/ A,,/ G,,>F,, | %12
 [E,B,]>[E,B,] [E,B,]>E, E,2 E,2 | B,,2 B,,2 (3B,[K:treble]DF B2 | %14
 [B,,B,]>[B,,B,] [B,,B,]>[B,,B,] B,2 A,2 | G,2 F,2[K:treble] (3EGB e2 | %16
 [E,B,]>[E,B,] [E,B,]>E, E,2 E,2 | A,2 A,2[K:treble] (3FAc f2 | %18
 [B,,B,]>[B,,B,] [B,,B,]>[B,,B,] [B,,B,]2 [B,,A,]2 | [E,G,]6 z2 |] %20
V:3
 x8 | x8 | x8 |[M:5/4] x11/2[K:treble] x9/2 |[M:4/4][K:bass] x8 | x14/3[K:treble] x10/3 | x8 | %7
 x4[K:treble] x4 | x8 | x4[K:treble] x4 | x8 | B,,4 B,,2 z2 | x8 | x14/3[K:treble] x10/3 | x8 | %15
 x4[K:treble] x4 | x8 | x4[K:treble] x4 | x8 | x8 |] %20

